X:73
T:No.73 Gusty's Frolicks Jig
C:slip jig
M:9/8
L:1/8
K:D
A,DD A,DD F3|A,DD DFA GEC|A,DD A,DDF3|
|1GFG ECE GEC:|2GFG ECE GFE||FDF ABGA2G|
FDF ABc dAG|FDF ABG A2F|GFG ECE GFE|
FDF ABGA2G|FDF ABc dAG|FED dcBA2F|
GFG ECE GFE|:Add Addf3|Add dfa gec|
Add Addf3|g3ece gfe:|dfd cecd2B|
AFD DFG AFD|GBd d=cB c2A|GE=C CB,E GEC:|
